SeaMapSymbols/Anchor_Berth.svg

<?xml version="1.0" encoding="UTF-8" standalone="no"?>
<!-- Generator: Adobe Illustrator 14.0.0, SVG Export Plug-In . SVG Version: 6.00 Build 43363)  -->

<svg
   xmlns:dc="http://purl.org/dc/elements/1.1/"
   xmlns:cc="http://creativecommons.org/ns#"
   xmlns:rdf="http://www.w3.org/1999/02/22-rdf-syntax-ns#"
   xmlns:svg="http://www.w3.org/2000/svg"
   xmlns="http://www.w3.org/2000/svg"
   xmlns:sodipodi="http://sodipodi.sourceforge.net/DTD/sodipodi-0.dtd"
   xmlns:inkscape="http://www.inkscape.org/namespaces/inkscape"
   version="1.1"
   id="svg8829"
   sodipodi:version="0.32"
   inkscape:version="0.48.1 r9760"
   sodipodi:docname="Anchor_Berth.svg"
   inkscape:export-xdpi="89.361702"
   inkscape:export-ydpi="89.361702"
   inkscape:export-filename="/Users/mherring/Desktop/try.png"
   inkscape:output_extension="org.inkscape.output.svg.inkscape"
   x="0px"
   y="0px"
   width="320px"
   height="320px"
   viewBox="0 0 320 320"
   enable-background="new 0 0 320 320"
   xml:space="preserve"><metadata
   id="metadata14"><rdf:RDF><cc:Work
       rdf:about=""><dc:format>image/svg+xml</dc:format><dc:type
         rdf:resource="http://purl.org/dc/dcmitype/StillImage" /><dc:title /></cc:Work></rdf:RDF></metadata>
<sodipodi:namedview
   id="base"
   inkscape:window-height="1088"
   inkscape:pageshadow="2"
   inkscape:pageopacity="0.0"
   inkscape:window-width="1920"
   inkscape:window-x="1440"
   inkscape:window-y="0"
   inkscape:current-layer="svg8829"
   showgrid="true"
   guidetolerance="1"
   inkscape:zoom="1.9032829"
   gridtolerance="1"
   objecttolerance="1"
   borderopacity="1.0"
   bordercolor="#666666"
   inkscape:cx="48.624603"
   pagecolor="#ffffff"
   inkscape:cy="172.38222"
   inkscape:window-maximized="0">
	<inkscape:grid
   type="xygrid"
   id="grid3611"
   empspacing="5"
   visible="true"
   enabled="true"
   snapvisiblegridlinesonly="true" /></sodipodi:namedview>
<defs
   id="defs4">
	
	
		<inkscape:perspective
   id="perspective15"
   inkscape:persp3d-origin="90 : 60 : 1"
   sodipodi:type="inkscape:persp3d"
   inkscape:vp_x="0 : 90 : 1"
   inkscape:vp_y="0 : 1000 : 0"
   inkscape:vp_z="180 : 90 : 1">
		</inkscape:perspective>
</defs>
<g
   id="g2415"
   transform="matrix(0.5,0,0,0.5,80.60585,80.46346)">
	
	<path
   id="path2417"
   d="m 120.57148,109.07797 0,-10.141955 C 126,99 187,99 201.11493,98.936015 l 0,10.141955 C 160,110 160,110 120.57148,109.07797 z"
   style="fill:#a30075;stroke:#a30075;stroke-width:9.80193138"
   inkscape:connector-curvature="0"
   sodipodi:nodetypes="ccccc" />
	
		
<path
   sodipodi:type="arc"
   style="fill:none;stroke:#a30075;stroke-width:10.64794275;stroke-miterlimit:4;stroke-opacity:1;stroke-dasharray:none"
   id="path3758"
   sodipodi:cx="165"
   sodipodi:cy="70"
   sodipodi:rx="25"
   sodipodi:ry="20"
   d="m 190,70 c 0,11.045695 -11.19288,20 -25,20 -13.80712,0 -25,-8.954305 -25,-20 0,-11.045695 11.19288,-20 25,-20 13.80712,0 25,8.954305 25,20 z"
   transform="matrix(0.84,0,0,1.05,21.4,2.5)" /><path
   sodipodi:nodetypes="cccccccccccccccccc"
   inkscape:connector-curvature="0"
   style="fill:#a30075;stroke:#a30075;stroke-width:9.80193138"
   d="m 257.84485,184.59331 -8.86175,49.96237 -12.14804,-11.22554 c -6.05829,6.72223 -12.95732,12.42537 -21.24088,17.6224 -13.9967,8.77895 -29.31596,13.74345 -44.72276,15.17582 l -1.57431,14.62085 -16.1964,0 -1.61954,-14.62085 c -24.94016,-2.40164 -48.72588,-13.9281 -66.17111,-33.30629 L 71.81978,234.55568 64.57855,183.9035 100,210 l -9.02302,7.85465 c 15.38515,13.23635 36.69388,22.08369 60.57696,23.9753 8.44606,-1.82995 10.86094,-1.82995 19.38434,0 23.71494,-1.89356 44.86141,-10.67251 60.20331,-23.79161 l -8.72115,-8.04029 z"
   id="path3789" /></g>
<g
   id="g2409"
   transform="matrix(0.49166415,0,0,0.488534,81.939582,81.797192)">
	<path
   id="path2411"
   d="m 259.13,187.391 -9.012,51.135 -12.354,-11.489 c -6.161,6.88 -13.177,12.717 -21.601,18.036 -14.234,8.985 -29.813,14.066 -45.481,15.532 l -1.601,14.964 -16.471,0 -1.647,-14.964 C 125.6,258.147 101.411,246.35 83.67,226.517 l -13.719,12.009 -7.364,-51.841 36.022,26.709 -9.176,8.039 c 15.646,13.547 37.316,22.602 61.604,24.538 l 3.247,-137.063 -34.381,0 0,-10.38 34.307,0.379 0,-8.63 C 143.6,87.939 135.72,79.309 135.72,69.002 c 0,-12.125 10.865,-21.936 24.278,-21.936 13.391,0 24.264,9.811 24.264,21.936 0,10.072 -7.527,18.581 -17.77,21.161 l 0,8.485 35.32,-0.12 0,10.38 -34.379,0 3.317,137.063 c 24.117,-1.938 45.622,-10.923 61.224,-24.35 l -8.869,-8.229 36.025,-26.001 z M 171.576,69.003 c 0,-5.767 -5.173,-10.447 -11.553,-10.447 -6.376,0 -11.549,4.682 -11.549,10.447 0,5.77 5.173,10.449 11.549,10.449 6.379,0 11.553,-4.681 11.553,-10.449 z"
   style="fill-opacity:0"
   inkscape:connector-curvature="0" />
	
		<ellipse
   id="ellipse2413"
   sodipodi:ry="10.449"
   sodipodi:rx="11.553"
   sodipodi:cy="69.002998"
   sodipodi:cx="160.02299"
   cx="160.02299"
   cy="69.002998"
   rx="11.553"
   ry="10.449"
   style="fill-opacity:0"
   d="m 171.576,69.002998 c 0,5.770824 -5.17246,10.449001 -11.55301,10.449001 -6.38054,0 -11.553,-4.678177 -11.553,-10.449001 0,-5.770823 5.17246,-10.449 11.553,-10.449 6.38055,0 11.55301,4.678177 11.55301,10.449 z">
	</ellipse>
</g>
<path
   sodipodi:type="arc"
   style="fill:none;stroke:#a30075;stroke-width:8;stroke-miterlimit:4;stroke-opacity:1;stroke-dasharray:none"
   id="path3791"
   sodipodi:cx="-35"
   sodipodi:cy="150"
   sodipodi:rx="50"
   sodipodi:ry="50"
   d="m 15,150 a 50,50 0 1 1 -100,0 50,50 0 1 1 100,0 z"
   transform="matrix(0.5,0,0,0.5,178.10585,92.96346)" /><rect
   style="fill:#a30075;fill-opacity:1;stroke:none"
   id="rect3793"
   width="7.5"
   height="7.5"
   x="156.78801"
   y="135.46346" /><rect
   style="fill:#a30075;fill-opacity:1;stroke:none"
   id="rect3795"
   width="12.5"
   height="8.5"
   x="154.42566"
   y="192.8206" /></svg>

<?xml version="1.0" encoding="UTF-8" standalone="no"?>
<!-- Generator: Adobe Illustrator 14.0.0, SVG Export Plug-In . SVG Version: 6.00 Build 43363)  -->

<svg
   xmlns:dc="http://purl.org/dc/elements/1.1/"
   xmlns:cc="http://creativecommons.org/ns#"
   xmlns:rdf="http://www.w3.org/1999/02/22-rdf-syntax-ns#"
   xmlns:svg="http://www.w3.org/2000/svg"
   xmlns="http://www.w3.org/2000/svg"
   xmlns:sodipodi="http://sodipodi.sourceforge.net/DTD/sodipodi-0.dtd"
   xmlns:inkscape="http://www.inkscape.org/namespaces/inkscape"
   version="1.1"
   id="svg8829"
   sodipodi:version="0.32"
   inkscape:version="0.48.1 r9760"
   sodipodi:docname="Anchorage.svg"
   inkscape:export-xdpi="89.361702"
   inkscape:export-ydpi="89.361702"
   inkscape:export-filename="/Users/mherring/Desktop/try.png"
   inkscape:output_extension="org.inkscape.output.svg.inkscape"
   x="0px"
   y="0px"
   width="320px"
   height="320px"
   viewBox="0 0 320 320"
   enable-background="new 0 0 320 320"
   xml:space="preserve"><metadata
   id="metadata14"><rdf:RDF><cc:Work
       rdf:about=""><dc:format>image/svg+xml</dc:format><dc:type
         rdf:resource="http://purl.org/dc/dcmitype/StillImage" /><dc:title></dc:title></cc:Work></rdf:RDF></metadata>
<sodipodi:namedview
   id="base"
   inkscape:window-height="1088"
   inkscape:pageshadow="2"
   inkscape:pageopacity="0.0"
   inkscape:window-width="1920"
   inkscape:window-x="1440"
   inkscape:window-y="0"
   inkscape:current-layer="svg8829"
   showgrid="true"
   guidetolerance="1"
   inkscape:zoom="5.383297"
   gridtolerance="1"
   objecttolerance="1"
   borderopacity="1.0"
   bordercolor="#666666"
   inkscape:cx="114.75508"
   pagecolor="#ffffff"
   inkscape:cy="172.38222"
   inkscape:window-maximized="0">
	<inkscape:grid
   type="xygrid"
   id="grid3611"
   empspacing="5"
   visible="true"
   enabled="true"
   snapvisiblegridlinesonly="true" /></sodipodi:namedview>
<defs
   id="defs4">
	
	
		<inkscape:perspective
   id="perspective15"
   inkscape:persp3d-origin="90 : 60 : 1"
   sodipodi:type="inkscape:persp3d"
   inkscape:vp_x="0 : 90 : 1"
   inkscape:vp_y="0 : 1000 : 0"
   inkscape:vp_z="180 : 90 : 1">
		</inkscape:perspective>
</defs>
<g
   id="g2415">
	
	<path
   id="path2417"
   d="m 120.57148,109.07797 0,-10.141955 C 126,99 187,99 201.11493,98.936015 l 0,10.141955 C 160,110 160,110 120.57148,109.07797 z"
   style="fill:#a30075;stroke:#a30075;stroke-width:4.90096569"
   inkscape:connector-curvature="0"
   sodipodi:nodetypes="ccccc" />
	
		
<path
   sodipodi:type="arc"
   style="fill:none;stroke:#a30075;stroke-width:10.64794254;stroke-miterlimit:4;stroke-opacity:1;stroke-dasharray:none"
   id="path3758"
   sodipodi:cx="165"
   sodipodi:cy="70"
   sodipodi:rx="25"
   sodipodi:ry="20"
   d="m 190,70 c 0,11.045695 -11.19288,20 -25,20 -13.80712,0 -25,-8.954305 -25,-20 0,-11.045695 11.19288,-20 25,-20 13.80712,0 25,8.954305 25,20 z"
   transform="matrix(0.84,0,0,1.05,21.4,2.5)" /><path
   sodipodi:nodetypes="cccccccccccccccccc"
   inkscape:connector-curvature="0"
   style="fill:#a30075;stroke:#a30075;stroke-width:4.90096569"
   d="m 257.84485,184.59331 -8.86175,49.96237 -12.14804,-11.22554 c -6.05829,6.72223 -12.95732,12.42537 -21.24088,17.6224 -13.9967,8.77895 -29.31596,13.74345 -44.72276,15.17582 l -1.57431,14.62085 -16.1964,0 -1.61954,-14.62085 c -24.94016,-2.40164 -48.72588,-13.9281 -66.17111,-33.30629 L 71.81978,234.55568 64.57855,183.9035 100,210 l -9.02302,7.85465 c 15.38515,13.23635 36.69388,22.08369 60.57696,23.9753 8.44606,-1.82995 10.86094,-1.82995 19.38434,0 23.71494,-1.89356 44.86141,-10.67251 60.20331,-23.79161 l -8.72115,-8.04029 z"
   id="path3789" /></g>
<g
   id="g2409"
   transform="matrix(0.9833283,0,0,0.977068,2.6674639,2.667464)">
	<path
   id="path2411"
   d="M 259.13,187.391 L 250.118,238.526 L 237.764,227.037 C 231.603,233.917 224.587,239.754 216.163,245.073 C 201.929,254.058 186.35,259.139 170.682,260.605 L 169.081,275.569 L 152.61,275.569 L 150.963,260.605 C 125.6,258.147 101.411,246.35 83.67,226.517 L 69.951,238.526 L 62.587,186.685 L 98.609,213.394 L 89.433,221.433 C 105.079,234.98 126.749,244.035 151.037,245.971 L 154.284,108.908 L 119.903,108.908 L 119.903,98.528 L 154.21,98.907 L 154.21,90.277 C 143.6,87.939 135.72,79.309 135.72,69.002 C 135.72,56.877 146.585,47.066 159.998,47.066 C 173.389,47.066 184.262,56.877 184.262,69.002 C 184.262,79.074 176.735,87.583 166.492,90.163 L 166.492,98.648 L 201.812,98.528 L 201.812,108.908 L 167.433,108.908 L 170.75,245.971 C 194.867,244.033 216.372,235.048 231.974,221.621 L 223.105,213.392 L 259.13,187.391 z M 171.576,69.003 C 171.576,63.236 166.403,58.556 160.023,58.556 C 153.647,58.556 148.474,63.238 148.474,69.003 C 148.474,74.773 153.647,79.452 160.023,79.452 C 166.402,79.452 171.576,74.771 171.576,69.003 z"
   style="fill-opacity:0" />
	
		<ellipse
   id="ellipse2413"
   sodipodi:ry="10.449"
   sodipodi:rx="11.553"
   sodipodi:cy="69.002998"
   sodipodi:cx="160.02299"
   cx="160.02299"
   cy="69.002998"
   rx="11.553"
   ry="10.449"
   style="fill-opacity:0"
   d="m 171.576,69.002998 c 0,5.770824 -5.17246,10.449001 -11.55301,10.449001 -6.38054,0 -11.553,-4.678177 -11.553,-10.449001 0,-5.770823 5.17246,-10.449 11.553,-10.449 6.38055,0 11.55301,4.678177 11.55301,10.449 z">
	</ellipse>
</g>
<path
   sodipodi:type="arc"
   style="fill:none;stroke:#a30075;stroke-width:4;stroke-miterlimit:4;stroke-opacity:1;stroke-dasharray:none"
   id="path3791"
   sodipodi:cx="-35"
   sodipodi:cy="150"
   sodipodi:rx="50"
   sodipodi:ry="50"
   d="m 15,150 a 50,50 0 1 1 -100,0 50,50 0 1 1 100,0 z"
   transform="translate(195,25)" /><rect
   style="fill:#a30075;fill-opacity:1;stroke:none"
   id="rect3793"
   width="15"
   height="15"
   x="152.36433"
   y="110" /><rect
   style="fill:#a30075;fill-opacity:1;stroke:none"
   id="rect3795"
   width="25"
   height="17"
   x="147.63963"
   y="224.71429" /></svg>
